X: 1
T: Pope's Toe, The
M: 4/4
L: 1/8
R: reel
K: Amaj
a2ec Acec|Acec dBB2|eaae c2Bc|dfed cAA2|
a2ec Acec|Acec dBB2|eaaf e2fg|a2ba afed:|
(3cBA eA fAeA|(3cBA ec B2ed|(3cBA eA fAeA|dfec A2ed|
(3cBA eA fAeA|(3cBA ec B2cB|Ac(3cBc defa|gbeg ae(3ede:|
